src/assets/info.svg

<?xml version="1.0" encoding="utf-8"?>
<svg width="800px" height="800px" viewBox="0 -0.5 25 25" fill="none" xmlns="http://www.w3.org/2000/svg">
<path fill-rule="evenodd" clip-rule="evenodd" d="M5.5 11V13C5.5 16.3137 8.18629 19 11.5 19H13.5C16.8137 19 19.5 16.3137 19.5 13V11C19.5 7.68629 16.8137 5 13.5 5H11.5C8.18629 5 5.5 7.68629 5.5 11Z" stroke="#000000" stroke-width="1.5" stroke-linecap="round" stroke-linejoin="round"/>
<path d="M12.5 12V16" stroke="#000000" stroke-width="1.5" stroke-linecap="round"/>
<path d="M12.5 9.5C12.2243 9.5 12 9.2757 12 9C12 8.7243 12.2243 8.5 12.5 8.5C12.7757 8.5 13 8.7243 13 9C13 9.2757 12.7757 9.5 12.5 9.5Z" fill="#000000"/>
<path d="M12.5 8C13.0523 8 13.5 8.44772 13.5 9C13.5 9.55228 13.0523 10 12.5 10C11.9477 10 11.5 9.55228 11.5 9C11.5 8.44772 11.9477 8 12.5 8Z" fill="#000000"/>
</svg>

<svg xmlns="http://www.w3.org/2000/svg" width="800" height="800" fill="none" viewBox="0 -0.5 25 25"><path stroke="#000" stroke-linecap="round" stroke-linejoin="round" stroke-width="1.5" d="M5.5 11v2a6 6 0 0 0 6 6h2a6 6 0 0 0 6-6v-2a6 6 0 0 0-6-6h-2a6 6 0 0 0-6 6Z" clip-rule="evenodd"/><path stroke="#000" stroke-linecap="round" stroke-width="1.5" d="M12.5 12v4"/><path fill="#000" d="M12.5 9.5a.5.5 0 1 1 .001-1.001A.5.5 0 0 1 12.5 9.5Z"/><path fill="#000" d="M12.5 8a1 1 0 1 1 0 2 1 1 0 0 1 0-2Z"/></svg>
